X: 1
T: John Ryan's
C: Trad
R: Polka
G: Irish
M: 2/4
L: 1/8
K: Dmaj
Z: ABC transcription by Verge Roller
r: 32
|: A | "D" dd "G" B/c/d/B/ | "D" AF AF | "D" dd "G" B/c/d/B/ | "D" AF "A" ED | "D" dd "G" B/c/d/B/ | "D" AF Ad/e/ | "D" fd "A" ec | "D" d2 d :|
|: d/e/ | "D" fd de/f/ | "G" gf "A" ea/g/ | "D" fd A2 | "D" fd "A" a z | "D" fd de/f/ | "G" gf "A" ea/g/ | "D" fd "A" ec | "D" d2 d :|
